X:17256
T:The Subliminal Waltz
M:6/8
L:1/8
C:Gerry Strong
R:Waltz
K:D
FG^G|:A fdB A^G|A fdB A_B|=B gge Bg|B3 BcB|A gge cB|A2 B2 c2|1dcd fdB|A3
FG^G:|2dcd fec|
d3 fg^g||a ffd dA|DF Ad fa|g bbg eg|B3 BcB|A gge cB|A2 B2 c2|dcd fdB|A3
fg^g|a ffd dA|DFA dfa|
g bbg eg|B3 BcB|A gge cB|A2 B2 c2|dcd fec|1d z FG^G:|d6||
